app/assets/images/play_dark.svg

<?xml version="1.0" encoding="UTF-8" standalone="no"?>
<svg width="19px" height="14px" viewBox="0 0 19 14" version="1.1" xmlns="http://www.w3.org/2000/svg" xmlns:xlink="http://www.w3.org/1999/xlink" xmlns:sketch="http://www.bohemiancoding.com/sketch/ns">
    <!-- Generator: Sketch 3.4.1 (15681) - http://www.bohemiancoding.com/sketch -->
    <title>play</title>
    <desc>Created with Sketch.</desc>
    <defs></defs>
    <g id="Slides" stroke="none" stroke-width="1" fill="none" fill-rule="evenodd" sketch:type="MSPage">
        <g id="Signs--::--Index" sketch:type="MSArtboardGroup" transform="translate(-1028.000000, -227.000000)" fill="#4A4A4A">
            <g id="Card-Copy" sketch:type="MSLayerGroup" transform="translate(255.000000, 225.000000)">
                <g id="Actions" transform="translate(773.000000, 0.000000)" sketch:type="MSShapeGroup">
                    <g id="play" transform="translate(0.347962, 2.718750)">
                        <g id="Group">
                            <path d="M17.8722222,0.555253092 C15.2559824,0.198146566 12.3652809,0 9.32605524,0 C6.28672028,0 3.39609161,0.198146566 0.779742604,0.555253092 C0.278286944,2.41819051 0,4.47650757 0,6.640625 C0,8.80470785 0.278286944,10.8630595 0.779742604,12.7259623 C3.39609161,13.0831034 6.28675671,13.28125 9.32605524,13.28125 C12.3652809,13.28125 15.255946,13.0831034 17.8722222,12.7259623 C18.3737142,10.8630595 18.6520376,8.80470785 18.6520376,6.640625 C18.6520376,4.47650757 18.3737142,2.41819051 17.8722222,0.555253092 L17.8722222,0.555253092 Z M6.99455054,9.9609375 L6.99455054,3.3203125 L12.8233123,6.640625 L6.99455054,9.9609375 L6.99455054,9.9609375 Z" id="Shape"></path>
                        </g>
                    </g>
                </g>
            </g>
        </g>
    </g>
</svg>

<svg height="14" viewBox="0 0 19 14" width="19" xmlns="http://www.w3.org/2000/svg"><path d="m17.8722222.55525309c-2.6162398-.35710652-5.5069413-.55525309-8.54616696-.55525309-3.03933496 0-5.92996363.19814657-8.54631264.55525309-.50145566 1.86293742-.7797426 3.92125448-.7797426 6.08537191 0 2.16408285.27828694 4.2224345.7797426 6.0853373 2.61634901.3571411 5.50701411.5552877 8.54631264.5552877 3.03922566 0 5.92989076-.1981466 8.54616696-.5552877.501492-1.8629028.7798154-3.92125445.7798154-6.0853373 0-2.16411743-.2783234-4.22243449-.7798154-6.08537191zm-10.87767166 9.40568441v-6.640625l5.82876176 3.3203125z" fill="#4a4a4a" fill-rule="evenodd" transform="translate(.347962 .71875)"/></svg>
